X:1
T:Forbes Morrison
C:James Scott Skinner
M:4/4
L:1/8
F:http://blackrosetheband.googlepages.com/ABCTUNES.ABC May 2009
F: http://www.abdn.ac.uk/scottskinner/display.php?ID=JSS0682 Oct 2009
R:Strathspey
K:A
d \
| "A"c<A E>D C>E A,>C | "D"D2 "Bm"B>A "E7"(3Bfe (3dcB \
| "A"c<A E>D C>E A,>C | "Bm"(3DFB "E7"(3GEG "A"A3 :|
g \
| "D"a>f "E"g>e "D"f<d "A"e>c | "E"d>B "A"c>A "Bm"(3Bcd "E7"(3efg \
| "D"a>f "E"g>e "D"f<d "A"e>c | "E7"(3Gfe (3dcB "A"A3 |]
g \
| "F#m"(3afa "C#dim"(3geg "D"(3fdf "A"(3ece | "E7"(3dBd "A"(3cAc "E7"(3Bcd (3efg \
| "A"(3aga "E7"(3efg "A"(3aed (3cBA | "E7"(3GFE (3DCB, "A"A,3 |]
